X:1
T:Rondinella
T:Rondinella
T:Pasillo
T:Alberto Castilla
C:Alberto Castilla
%%score { 1 | 2 }
L:1/8
M:3/4
K:C
V:1 treble nm="Piano" snm="Pno."
V:2 bass 
V:1
 z[Q:1/4=172]"^Vivace""^G" G"^F♯" ^F"^G"G"^A" A"^G"G |"^E" E"^G"G"^C" c"^E"e"^G" g2 | %2
 z2"^G\nE" [eg]2"^F\nD" [df]"^E\nC"[ce] |"^G\nE" [eg]4"^F\nD" [df]2 | %4
 z"^G" G"^F♯" ^F"^G"G"^A" A"^G"G |"^F" F"^G"G"^B" B"^D"d"^F" f2 | %6
 z2"^F\nD" [df]2"^E\nC" [ce]"^D\nB"[Bd] |"^G\nE" [eg]4"^E\nC" [ce]2 | %8
 z"^G" G"^F♯" ^F"^G"G"^A" A"^G"G |"^E" E"^G"G"^C" c"^E"e"^G" g2 | %10
 z2"^G\nE" [eg]2"^F\nD" [df]"^E\nC"[ce] |"^G\nB♭" [_Bg]4"^F\nA" [Af]2 | %12
 z"^G" g"^F" f"^E"e"^F" f"^G"g | z"^E" e"^E" e"^D♯"^d"^E" e"^F"f | %14
 z"^D" d"^D" d"^C♯"^c"^D" d"^E"e |"^C" c2 z"^C\nG\nE" [EGc] [EGc]2 |: %16
 z2"^G\nC" [CG]2"^G\nD♭\nB♭" [_B,_DG]2 |"^G\nF\nB" [B,FG]2"^G\nF" [FG]"^G\nF"[FG]"^A\nF" [FA]2 | %18
 z2"^B\nG\nF" [FGB]2 [FGB]2 |"^A\nE" [EA]2"^A\nE" [EA]"^C\nE"[Ec]"^A\nE" [EA]2 | %20
 z2"^C\nF" [Fc]2"^C\nG♭" [_Gc]2 |"^B\nF" [FB]2"^B\nF" [FB]"^D\nF"[Fd]"^B\nF" [FB]2 | %22
 z2"^B\nE" [EB]2"^B\nD♯" [^DB]2 |"^A\nE" [EA]2"^A\nE" [EA]"^C\nE"[Ec]"^A\nE" [EA]2 | %24
 z2"^G\nD\nB" [B,DG]2 [_B,_DG]2 |"^G\nF\nB" [B,FG]2"^G\nF" [FG][F^G]"^A\nF" [FA]2 | %26
 z2"^B\nG\nF" [FGB]2 [FGB]2 |"^A\nE" [EA]2"^A\nE" [EA]"^C\nE"[Ec]"^A\nE" [EA]2 | %28
 z2"^C\nF" [Fc]2"^C\nD♯" [^Dc]2 |"^B\nE" [EB-]"^B\nF"[FB]"^B\nG" [GB]"^C\nA"[Ac]"^B\nG" [GB]2 | %30
 z"^B" B"^C" c"^B"B"^A♯" ^A"^B"B |"^E\nG" [Ge]2 z [Ge] [Ge]2 :: %32
 z2"^E\nC\nG" [Gce]2"^E\nB♭\nG" [G_Be]2 |"^E\nA\nF" [FAe]2"^D\nF" [Fd]"^E\nF"[Fe]"^F\nA" [Af]2 | %34
 z2"^D\nB\nG" [GBd]2 [GBd]2 |"^D\nG\nE" [EGd]2"^C\nE" [Ec]"^D\nF"[Fd]"^E\nG" [Ge]2 | %36
 z2"^C\nG" [Gc]2"^C\nG♭" [_Gc]2 |"^C\nF" [Fc]"^B\nF"[FB]"^D\nF" [Fd]"^B\nF"[FB]"^A\nF" [FA]2 | %38
 z2"^A\nB" [B,A]2"^A\nD♯" [^DA]2 |"^A\nE" [EA]"^G\nE"[EG]"^C\nE" [Ec]"^A\nE"[EA]"^G\nE" [EG]2 | %40
 z2"^E\nC\nG" [Gce]2"^E\nB♭\nG" [G_Be]2 | %41
"^E\nA\nF" [F-A-e][FAe]"^D\nF" [Fd]"^E\nG"[Ge]"^F\nA" [Af]2 | z2"^D\nB\nG" [GBd]2 [GBd]2 | %43
"^D\nG\nE" [E-G-d][EGd]"^C\nE" [Ec]"^D\nF"[Fd]"^E\nG" [Ge]2 | z2"^C\nG" [Gc]2 z2 | %45
 z2"^A\nC" [CA]2 z2 | z2"^F\nA" [Af]2 z2 |"^C\nE" [Ec]2 z"^C\nG\nE" [EGc] [EGc]2 :| %48
V:2
"^G\nG" [G,,G,]6 |"^C\nC" [C,,C,]"^E\nC"[C,,E,] z"^C\nG\nE" [E,G,C] [E,G,C]2 | %2
"^C♯" ^C,"^C♯"C, z"^E\nA\nG" [G,A,E] [G,A,E]2 |"^D" D,"^D"D, z"^D\nA\nF" [F,A,D] [F,A,D]2 | %4
"^G\nA" [A,,G,]3"^B\nG\nF" [F,G,B,]"^B\nG\nF" [F,G,B,]2 | %5
"^D" D,"^D"D, z"^B\nG" [G,B,]"^B\nG" [G,B,]2 |"^B" B,,"^B"B,, z"^D\nG" [G,D]"^D\nG" [G,D]2 | %7
"^C" C,"^C"C, z"^E\nG" [G,E] [G,E]2 |"^E\nG" [G,,E,][G,,E,] z"^F\nF" [F,,F,] [F,,F,] z | %9
"^D\nE" [E,,D,][E,,D,] z"^C\nC" [C,,C,] [C,,C,]2 | %10
"^C♯\nD♯" [^D,,^C,][D,,C,] z"^A\nA" [A,,,A,,] [A,,,A,,]2 | %11
"^C\nD" [D,,C,]"^C\nD"[D,,C,] z"^D\nA\nF" [F,A,D] [F,A,D]2 | %12
"^A♭\nC♭" [_C,_A,][C,A,] z"^F\nF" [F,,F,] [F,,F,]2 | %13
"^E\nE" [E,,E,][E,,E,] z"^G\nG" [G,,G,] [G,,G,]2 | %14
"^D\nD" [D,,D,][D,,D,] z"^G\nG" [G,,G,] [G,,G,] z |"^C\nC" [C,,C,]2 z"^C\nG\nC" [C,G,C] [C,G,C]2 |: %16
 z2"^E\nE" [E,,E,]2"^E♭\nE♭" [_E,,_E,]2 |"^D\nD" [D,,D,][D,,D,] z"^G\nG" [G,,,G,,] [G,,,G,,] z | %18
"^D\nD" [D,,D,][D,,D,] z"^G\nG" [G,,,G,,]"^G\nG" [G,,,G,,] z | %19
"^C\nC" [C,,C,][C,,C,] z"^G\nG" [G,,,G,,] [G,,,G,,] z | %20
"^E\nE" [E,,E,]"^E\nE"[E,,E,] z"^E♭\nE♭" [_E,,_E,] [E,,E,] z | %21
"^D\nD" [D,,D,][D,,D,] z"^G\nG" [G,,G,] [G,,G,]2 | %22
"^D\nD" [D,,D,][D,,D,] z"^A\nG" [G,,,A,,] [G,,,A,,]2 | %23
"^C\nC" [C,,C,][C,,C,] z"^G\nG" [G,,,G,,] [G,,,G,,]2 |"^E\nE" [E,,E,]4"^E♭\nE♭" [_E,,_E,]2 | %25
"^D\nD" [D,,D,][D,,D,] z"^G\nG" [G,,,G,,] [G,,,G,,] z | %26
"^D\nD" [D,,D,][D,,D,] z"^G\nG" [G,,,G,,] [G,,,G,,] z | %27
"^C\nC" [C,,C,][C,,C,] z"^G\nG" [G,,,G,,] [G,,,G,,] z | %28
"^A" A,,"^G"G,,"^F♯" ^F,,2"^B\nB" [B,,,B,,]2 |"^E\nE" [E,,E,][E,,E,] z [E,,E,] [E,,E,]2 | %30
"^D♯\nD♯" [^D,,^D,][D,,D,] z"^B\nB" [B,,,B,,] [B,,,B,,]2 |"^E\nE" [E,,E,]2 z [E,,E,] [E,,E,]2 :: %32
"^C\nC" [C,,C,]4 [C,,C,]2 |"^D\nD" [D,,D,][D,,D,] z"^A\nA" [A,,A,] [A,,A,] z | %34
"^G\nG" [G,,G,][G,,G,] z"^F\nF" [F,,F,] [F,,F,] z | %35
"^E\nE" [E,,E,][E,,E,] z"^C\nC" [C,,C,] [C,,C,] z | %36
"^E\nE" [E,,E,][E,,E,] z"^E♭\nE♭" [_E,,_E,] [E,,E,]2 | %37
"^D\nD" [D,,D,][D,,D,] z"^G\nG" [G,,G,] [G,,G,]2 | %38
"^G\nG" [G,,,G,,]2"^A\nA" [A,,,A,,]2"^B\nB" [B,,,B,,]2 | %39
"^C\nC" [C,,C,][C,,C,] z"^E\nE" [E,,E,] [E,,E,]2 |"^C\nC" [C,,C,]4"^C♯\nC♯" [^C,,^C,]2 | %41
"^D\nD" [D,,D,]"^D\nD"[D,,D,] z"^A\nA" [A,,A,]"^A\nA" [A,,A,] z | %42
"^G\nG" [G,,G,]"^G\nG"[G,,G,] z"^F\nF" [F,,F,]"^F\nF" [F,,F,]2 | %43
"^E\nE" [E,,E,]"^E\nE"[E,,E,] z"^G\nG" [G,,G,]"^G\nG" [G,,G,] z | %44
"^C\nC" [C,,C,][C,,C,] z"^E\nE" [E,,E,] [E,,E,]2 | %45
"^F\nF" [F,,F,][F,,F,] z"^D\nD" [D,,D,] [D,,D,]2 | %46
"^B\nB" [B,,,B,,][B,,,B,,] z"^G\nG" [G,,,G,,]"^A\nA" [A,,,A,,]"^B\nG"[G,,,B,,] | %47
"^C\nC" [C,,C,]2 z"^C\nG\nC" [C,G,C] [C,G,C]2 :| %48

